!!!OTL: Der Tannhaeuser Es wollt ein Suender reisen
!!!ARE: Europa, Mitteleuropa, Oesterreich, Kaernten, Friesach
!!!YOR: 1, S. 151
!!    1920 aufgezeichnet
!!!SCT: Q0015D
!!!YEM: Copyright 1995, estate of Helmut Schaffrath.
**kern
*ICvox
*Ivox
*M4/4
*k[f#]
*G:
{4d
=1
4g
4g
4a
4a
=2
4b
4dd
4a}
{4b
=3
4cc
8a
8a
4b
4g
=4
2a
4r}
{4ee
=5
4dd
4b
4a
4g
=6
4f#
4a
4g}
{4a
=7
8b
8b
4b
4a
4f#
=8
2g
4r}
==
!!!AGN: Ballade, Wallfahrt, religioes
!!!ONB: ESAC (Essen Associative Code) Database: BALLADE
!!!AMT: simple quadruple
!!!AIN: vox
!!!EED: Helmut Schaffrath
!!!EEV: 1.0
*-
